X:495
T: Zöld erőbe de magos, zöld erdőbe da magos...
M:4/4
L:1/8
K:Eb
CCEE DC G,2 | EEGG FGFE | D C3 C2 z2 |
CCEE DC G,2 | EEGG FGFE | D C3 C2 z2 |
G2 E2 G2 B2 | AAGG FFCC | F2 (EF) G2 z2 |
CCEE DC G,2 | EEGG FGFE | D C3 C2 z2 |

